X:2
T:Butter Side Up
C:Andy Hornby 1995
Q:1/4=180
I:abc2nwc
M:9/8
L:1/8
K:D
A|dcd A2F D2d|Bcd dcd ecA|dcd A2F D2d|Bcd edc d2:|
|:e|fgf dcd A2f|ede cBc A2e|dcd BdB G2B|Agf edc d2:|
%%vskip 3cm
